svg/Outline/flash-off.svg

<svg viewBox="0 0 24 24" xmlns="http://www.w3.org/2000/svg" width="24" height="24"><path d="M1.26 1.26a.9.9 0 0 1 1.28 0l20.2 20.2.06.06a.9.9 0 0 1-1.27 1.27l-.07-.06-20.2-20.2a.9.9 0 0 1 0-1.27M8.3 11.49l-1.37 1.7H9.4a1.9 1.9 0 0 1 1.87 2.24l-.6 3.28 2.17-2.68 1.28 1.28-4 4.96h-.01a1 1 0 0 1-.78.37 1 1 0 0 1-.97-.74 1 1 0 0 1-.02-.43v-.01l1.16-6.35a.1.1 0 0 0-.1-.12H5.04a.9.9 0 0 1-.7-1.47l2.68-3.31zm6.47-10.13.2.05.1.04.1.04.17.13.08.08.06.08.1.19.04.1.03.1.02.21v.1l-.02.06-1.16 6.35a.1.1 0 0 0 .1.12h4.37a.9.9 0 0 1 .7 1.47l-2.69 3.31-1.28-1.28 1.38-1.7H14.6a1.9 1.9 0 0 1-1.87-2.24l.6-3.29-2.17 2.69-1.28-1.28 4-4.95a1 1 0 0 1 .33-.27l.11-.05a1 1 0 0 1 .35-.06z"/></svg>

<svg viewBox="0 0 24 24" xmlns="http://www.w3.org/2000/svg" width="24" height="24"><path d="M1.26 1.26A.9 .9 0 0 1 2.54 1.26L22.8 21.52A.9 .9 0 0 1 21.53 22.79L1.26 2.53A.9 .9 0 0 1 1.26 1.26M8.3 11.49L6.93 13.19L9.4 13.19A1.9 1.9 0 0 1 11.27 15.43L10.67 18.71L12.84 16.03L14.12 17.31L10.11 22.27A1 1 0 0 1 9.33 22.64A1 1 0 0 1 8.36 21.9A1 1 0 0 1 8.34 21.47L9.5 15.11A.1 .1 0 0 0 9.4 14.99L5.04 14.99A.9 .9 0 0 1 4.34 13.52L7.02 10.21ZM14.77 1.36L15.17 1.49L15.48 1.78L15.65 2.17L15.65 2.54L14.49 8.89A.1 .1 0 0 0 14.59 9.01L18.96 9.01A.9 .9 0 0 1 19.66 10.48L16.97 13.79L15.69 12.51L17.07 10.81L14.6 10.81A1.9 1.9 0 0 1 12.73 8.57L13.33 5.28L11.16 7.97L9.88 6.69L13.88 1.74A1 1 0 0 1 14.21 1.47L14.32 1.42A1 1 0 0 1 14.67 1.36Z"/></svg>
